app/assets/icons/menu_icon.svg

<svg width="25" height="24" viewBox="0 0 25 24" fill="none" xmlns="http://www.w3.org/2000/svg">
<path d="M11.8438 3C12.0046 3 12.1437 3.05876 12.2612 3.17627C12.3787 3.29378 12.4375 3.43294 12.4375 3.59375V10.125C12.4375 10.4528 12.3757 10.759 12.252 11.0435C12.1283 11.328 11.9582 11.5785 11.7417 11.7949C11.5252 12.0114 11.2716 12.1815 10.981 12.3052C10.6903 12.4289 10.3841 12.4938 10.0625 12.5V21.4062C10.0625 21.5671 10.0037 21.7062 9.88623 21.8237C9.76872 21.9412 9.62956 22 9.46875 22C9.30794 22 9.16878 21.9412 9.05127 21.8237C8.93376 21.7062 8.875 21.5671 8.875 21.4062V12.5C8.5472 12.5 8.24105 12.4382 7.95654 12.3145C7.67204 12.1908 7.42155 12.0207 7.20508 11.8042C6.98861 11.5877 6.81852 11.3372 6.69482 11.0527C6.57113 10.7682 6.50618 10.459 6.5 10.125V3.59375C6.5 3.43294 6.55876 3.29378 6.67627 3.17627C6.79378 3.05876 6.93294 3 7.09375 3C7.25456 3 7.39372 3.05876 7.51123 3.17627C7.62874 3.29378 7.6875 3.43294 7.6875 3.59375V10.125C7.6875 10.292 7.71842 10.4466 7.78027 10.5889C7.84212 10.7311 7.92562 10.8548 8.03076 10.96C8.1359 11.0651 8.2627 11.1517 8.41113 11.2197C8.55957 11.2878 8.71419 11.3187 8.875 11.3125V3.59375C8.875 3.43294 8.93376 3.29378 9.05127 3.17627C9.16878 3.05876 9.30794 3 9.46875 3C9.62956 3 9.76872 3.05876 9.88623 3.17627C10.0037 3.29378 10.0625 3.43294 10.0625 3.59375V11.3125C10.2295 11.3125 10.3841 11.2816 10.5264 11.2197C10.6686 11.1579 10.7923 11.0744 10.8975 10.9692C11.0026 10.8641 11.0892 10.7373 11.1572 10.5889C11.2253 10.4404 11.2562 10.2858 11.25 10.125V3.59375C11.25 3.43294 11.3088 3.29378 11.4263 3.17627C11.5438 3.05876 11.6829 3 11.8438 3ZM18.375 3V21.4062C18.375 21.5671 18.3162 21.7062 18.1987 21.8237C18.0812 21.9412 17.9421 22 17.7812 22C17.6204 22 17.4813 21.9412 17.3638 21.8237C17.2463 21.7062 17.1875 21.5671 17.1875 21.4062V16.0625C16.9587 16.0625 16.7113 16.0656 16.4453 16.0718C16.1794 16.078 15.9165 16.0749 15.6567 16.0625C15.397 16.0501 15.1434 16.013 14.896 15.9512C14.6486 15.8893 14.4321 15.7935 14.2466 15.6636C14.061 15.5337 13.9095 15.3574 13.792 15.1348C13.6745 14.9121 13.6188 14.6276 13.625 14.2812V7.15625C13.625 6.58105 13.7332 6.04297 13.9497 5.54199C14.1662 5.04102 14.4631 4.60189 14.8403 4.22461C15.2176 3.84733 15.6567 3.55046 16.1577 3.33398C16.6587 3.11751 17.1999 3.00618 17.7812 3H18.375ZM17.1875 4.24316C16.8411 4.3112 16.5257 4.4349 16.2412 4.61426C15.9567 4.79362 15.7062 5.01628 15.4897 5.28223C15.2733 5.54818 15.1063 5.83577 14.9888 6.14502C14.8713 6.45426 14.8125 6.79134 14.8125 7.15625V14.2812C14.8125 14.4421 14.8713 14.5812 14.9888 14.6987C15.1063 14.8162 15.2454 14.875 15.4062 14.875H17.1875V4.24316Z" fill="#222222"/>
</svg>

<svg width="25" height="24" fill="none" xmlns="http://www.w3.org/2000/svg"><path d="M11.844 3c.16 0 .3.059.417.176a.57.57 0 0 1 .177.418v6.531c0 .328-.062.634-.186.918a2.385 2.385 0 0 1-1.271 1.262c-.29.124-.597.189-.919.195v8.906c0 .161-.058.3-.176.418A.57.57 0 0 1 9.47 22a.57.57 0 0 1-.418-.176.57.57 0 0 1-.176-.418V12.5c-.328 0-.634-.062-.918-.185a2.413 2.413 0 0 1-1.457-2.19V3.594c0-.161.059-.3.176-.418A.57.57 0 0 1 7.094 3c.16 0 .3.059.417.176a.57.57 0 0 1 .176.418v6.531c0 .167.031.322.093.464a1.191 1.191 0 0 0 .631.63c.149.069.303.1.464.094v-7.72c0-.16.059-.3.176-.417A.57.57 0 0 1 9.47 3c.16 0 .3.059.417.176a.57.57 0 0 1 .177.418v7.719c.166 0 .321-.031.463-.093a1.19 1.19 0 0 0 .372-.25c.105-.106.191-.233.26-.381.067-.149.098-.303.092-.464V3.594c0-.161.059-.3.176-.418A.57.57 0 0 1 11.844 3Zm6.531 0v18.406c0 .161-.059.3-.176.418a.57.57 0 0 1-.418.176.57.57 0 0 1-.417-.176.57.57 0 0 1-.177-.418v-5.343c-.228 0-.476.003-.742.009-.266.006-.529.003-.788-.01a3.898 3.898 0 0 1-.761-.11 1.942 1.942 0 0 1-.65-.288 1.466 1.466 0 0 1-.454-.53c-.117-.222-.173-.506-.167-.853V7.156c0-.575.108-1.113.325-1.614a4.202 4.202 0 0 1 2.208-2.208A4.163 4.163 0 0 1 17.78 3h.594Zm-1.188 1.243a2.751 2.751 0 0 0-.946.371c-.284.18-.535.402-.751.668a3.113 3.113 0 0 0-.501.863c-.118.31-.177.646-.177 1.011v7.125c0 .161.06.3.177.418a.57.57 0 0 0 .417.176h1.781V4.243Z" fill="#222"/></svg>
